src/assets/fleet-icons/trail.svg

<svg width="20" height="20" viewBox="0 0 20 20" fill="none" xmlns="http://www.w3.org/2000/svg">
<path d="M17.5185 10V9.31652C17.5185 8.93903 17.2125 8.63303 16.835 8.63303C16.4576 8.63303 16.1516 8.93903 16.1516 9.31652V10H15.4681V5.21551C15.4681 4.08277 14.5503 3.16501 13.4176 3.16501H3.84851C2.71576 3.16501 1.798 4.08277 1.798 5.21551V10.6835V14.101C1.798 14.4785 2.10401 14.7845 2.48149 14.7845H3.16498C3.16498 15.9172 4.08275 16.835 5.21549 16.835C6.34823 16.835 7.26599 15.9172 7.26599 14.7845H9.31649C9.31649 15.9172 10.2343 16.835 11.367 16.835C12.4997 16.835 13.4175 15.9172 13.4175 14.7845H14.7845C15.162 14.7845 15.468 14.4785 15.468 14.101V11.367H17.5185C17.896 11.367 18.202 11.061 18.202 10.6835C18.202 10.306 17.896 10 17.5185 10ZM3.16502 5.21551C3.16502 4.83774 3.47073 4.53202 3.84851 4.53202H13.4175C13.7953 4.53202 14.101 4.83774 14.101 5.21551V10H3.16502V5.21551ZM5.21552 15.468C4.83775 15.468 4.53203 15.1623 4.53203 14.7845C4.53203 14.6794 4.55641 14.5802 4.59877 14.4912C4.60908 14.4763 4.61908 14.4612 4.62828 14.4454C4.72148 14.2856 4.86844 14.1719 5.03834 14.125C5.03908 14.1248 5.03985 14.1246 5.04059 14.1244C5.05911 14.1194 5.07794 14.1154 5.09694 14.112C5.10976 14.1097 5.12257 14.1076 5.13561 14.1061C5.14221 14.1053 5.14885 14.1047 5.15548 14.1041C5.17528 14.1023 5.19524 14.101 5.21549 14.101C5.23574 14.101 5.2557 14.1024 5.2755 14.1041C5.28213 14.1047 5.28876 14.1053 5.29536 14.1061C5.3084 14.1076 5.32125 14.1097 5.33403 14.112C5.35303 14.1154 5.37187 14.1194 5.39039 14.1244C5.39113 14.1246 5.3919 14.1248 5.39263 14.125C5.56254 14.1719 5.70953 14.2856 5.8027 14.4454C5.8119 14.4612 5.82186 14.4763 5.83221 14.4912C5.87456 14.5802 5.89898 14.6794 5.89898 14.7845C5.89901 15.1623 5.59329 15.468 5.21552 15.468ZM11.367 15.468C10.9893 15.468 10.6835 15.1623 10.6835 14.7845C10.6835 14.6794 10.7079 14.5802 10.7503 14.4912C10.7606 14.4763 10.7706 14.4612 10.7798 14.4454C10.873 14.2856 11.0199 14.1719 11.1899 14.125C11.1906 14.1248 11.1914 14.1246 11.1921 14.1244C11.2106 14.1194 11.2295 14.1154 11.2485 14.112C11.2613 14.1097 11.2741 14.1076 11.2871 14.1061C11.2937 14.1053 11.3004 14.1047 11.307 14.1041C11.3268 14.1023 11.3467 14.101 11.367 14.101C11.3872 14.101 11.4072 14.1024 11.427 14.1041C11.4336 14.1047 11.4403 14.1053 11.4469 14.1061C11.4599 14.1076 11.4728 14.1097 11.4855 14.112C11.5045 14.1154 11.5234 14.1194 11.5419 14.1244C11.5426 14.1246 11.5434 14.1248 11.5441 14.125C11.714 14.1719 11.861 14.2856 11.9542 14.4454C11.9634 14.4612 11.9734 14.4763 11.9837 14.4912C12.0261 14.5802 12.0505 14.6794 12.0505 14.7845C12.0505 15.1623 11.7448 15.468 11.367 15.468ZM14.101 13.4175H12.8952C12.5668 13.0506 12.1084 12.8029 11.592 12.7466C11.5901 12.7463 11.5882 12.746 11.5862 12.7458C11.5549 12.7425 11.5233 12.7401 11.4916 12.7382C11.4865 12.7378 11.4814 12.7373 11.4763 12.737C11.4401 12.7351 11.4037 12.7341 11.367 12.7341C11.3304 12.7341 11.294 12.7351 11.2578 12.737C11.2527 12.7373 11.2476 12.7379 11.2424 12.7382C11.2107 12.7401 11.1792 12.7425 11.1479 12.7458C11.1459 12.746 11.144 12.7463 11.142 12.7466C10.6257 12.8029 10.1673 13.0506 9.83886 13.4175H6.74369C6.41529 13.0506 5.95684 12.8029 5.44053 12.7466C5.43858 12.7463 5.43665 12.746 5.4347 12.7458C5.4034 12.7425 5.37184 12.7401 5.34012 12.7382C5.33499 12.7378 5.3299 12.7373 5.32474 12.737C5.28857 12.7351 5.25217 12.7341 5.21552 12.7341C5.17887 12.7341 5.14247 12.7351 5.1063 12.737C5.10114 12.7373 5.09608 12.7379 5.09092 12.7382C5.0592 12.7401 5.02764 12.7425 4.99634 12.7458C4.99439 12.746 4.99246 12.7463 4.99051 12.7466C4.47423 12.8029 4.01575 13.0506 3.68735 13.4175H3.16502V11.367H14.101V13.4175Z" fill="#656565"/>
</svg>

<svg width="20" height="20" fill="none" xmlns="http://www.w3.org/2000/svg">
    <path
        d="M17.518 10v-.683a.683.683 0 1 0-1.366 0V10h-.684V5.216a2.05 2.05 0 0 0-2.05-2.051h-9.57a2.05 2.05 0 0 0-2.05 2.05v8.886c0 .377.306.683.683.683h.684a2.05 2.05 0 1 0 4.101 0h2.05a2.05 2.05 0 1 0 4.101 0h1.367a.683.683 0 0 0 .684-.683v-2.734h2.05a.683.683 0 1 0 0-1.367ZM3.165 5.216c0-.378.306-.684.684-.684h9.569c.377 0 .683.306.683.684V10H3.165V5.216Zm2.05 10.252a.683.683 0 0 1-.616-.977l.03-.046a.688.688 0 0 1 .41-.32h.002a.666.666 0 0 1 .095-.019l.02-.002a.661.661 0 0 1 .234.02l.003.001c.17.047.317.16.41.32a.453.453 0 0 0 .03.046.68.68 0 0 1-.617.977Zm6.152 0a.683.683 0 0 1-.617-.977.7.7 0 0 0 .03-.046.688.688 0 0 1 .41-.32h.002a.666.666 0 0 1 .095-.019l.02-.002a.66.66 0 0 1 .12 0l.02.002a.608.608 0 0 1 .095.018l.002.001c.17.047.317.16.41.32a.7.7 0 0 0 .03.046.683.683 0 0 1-.617.977Zm2.734-2.05h-1.206a2.045 2.045 0 0 0-1.403-.68l-.016-.001a2.084 2.084 0 0 0-.218 0l-.016.001a2.099 2.099 0 0 0-.094.008h-.006a2.045 2.045 0 0 0-1.303.671H6.744a2.045 2.045 0 0 0-1.303-.67l-.006-.001a2.1 2.1 0 0 0-.095-.008l-.015-.001a2.081 2.081 0 0 0-.219 0l-.015.001a2.1 2.1 0 0 0-.095.008h-.005a2.045 2.045 0 0 0-1.304.671h-.522v-2.05h10.936v2.05Z"
        fill="#656565" />
</svg>
